X:1
T:Title
%%score { ( 1 3 ) | ( 2 4 ) }
L:1/8
M:4/4
K:Eb
V:1 treble nm="Grand Piano"
V:3 treble 
V:2 bass 
V:4 bass 
V:1
 z4 z2[Q:1/4=100] G2 | G3 F E2 [B,GB]2 | [B,FB]3 [B,FA] [B,EG]2 E2 | F2 G2 F2 E2 |[M:3/4] D6 | %5
[M:1/4] D2 |[M:4/4] E2 F2 G2 [B,EG]2 |[M:9/8] [CEA]2 [_DGB]- [DGB] [CAc]2- [CAc][GB]A | %8
[M:4/4] [B,EG]3 [B,EG] [B,DG]2 [A,DF]2 |[M:3/4] [G,E]6 |] %10
V:2
 z4 z2 [E,B,E]2 | [A,B,D]3 [A,B,D] [G,B,]2 E,2 | D,3 D, E,2 E,2 | F,2 G,2 F,2 [C,F,=A,]2 | %4
[M:3/4] [B,,F,B,]6 |[M:1/4] [B,,B,]2 |[M:4/4] [G,B,]2 [F,B,D]2 [E,B,E]2 _D,2 | %7
[M:9/8] C,2 B,,- B,, A,,2- A,, z F |[M:4/4] B,,3 B,, B,,2 B,,2 |[M:3/4] E,6 |] %10
V:3
 x8 | x8 | x8 | x8 |[M:3/4] x6 |[M:1/4] x2 |[M:4/4] x8 |[M:9/8] z3 z3 z C2 |[M:4/4] x8 | %9
[M:3/4] x6 |] %10
V:4
 x8 | x8 | x8 | x8 |[M:3/4] x6 |[M:1/4] x2 |[M:4/4] x8 |[M:9/8] z3 z3 z A,,2 |[M:4/4] x8 | %9
[M:3/4] x6 |] %10

